packages/ankr-earn/src/assets/img/ethereum-mainnet-icon.svg

<svg width="48" height="48" viewBox="0 0 48 48" fill="none" xmlns="http://www.w3.org/2000/svg">
  <path
    d="M24 48C37.2548 48 48 37.2548 48 24C48 10.7452 37.2548 0 24 0C10.7452 0 0 10.7452 0 24C0 37.2548 10.7452 48 24 48Z"
    fill="white"/>
  <path d="M23.999 8.72656V20.0153L33.8129 24.2787L23.999 8.72656Z" fill="black" fill-opacity="0.602"/>
  <path d="M23.9978 8.72656L14.1826 24.2787L23.9978 20.0153V8.72656Z" fill="black"/>
  <path d="M23.999 31.5934V39.2639L33.8194 26.0547L23.999 31.5934Z" fill="black" fill-opacity="0.602"/>
  <path d="M23.9978 39.2658V31.5941L14.1826 26.0566L23.9978 39.2658Z" fill="black"/>
  <path d="M23.999 29.8185L33.8129 24.2785L23.999 20.0176V29.8185Z" fill="black" fill-opacity="0.2"/>
  <path d="M14.1826 24.2785L23.9978 29.8185V20.0176L14.1826 24.2785Z" fill="black" fill-opacity="0.602"/>
</svg>

<svg width="48" height="48" fill="none" xmlns="http://www.w3.org/2000/svg"><path d="M24 48c13.255 0 24-10.745 24-24S37.255 0 24 0 0 10.745 0 24s10.745 24 24 24z" fill="#fff"/><path d="M23.999 8.727v11.288l9.814 4.264-9.814-15.552z" fill="#000" fill-opacity=".602"/><path d="M23.998 8.727l-9.815 15.552 9.815-4.264V8.727z" fill="#000"/><path d="M23.999 31.593v7.67l9.82-13.208L24 31.593z" fill="#000" fill-opacity=".602"/><path d="M23.998 39.266v-7.672l-9.815-5.537 9.815 13.209z" fill="#000"/><path d="M23.999 29.819l9.814-5.54-9.814-4.261v9.8z" fill="#000" fill-opacity=".2"/><path d="M14.183 24.279l9.815 5.54v-9.801l-9.815 4.26z" fill="#000" fill-opacity=".602"/></svg>
